Newaita/actions/32/meeting-attending-tentative.svg

<svg height="32" viewBox="0 0 32 32" width="32" xmlns="http://www.w3.org/2000/svg"><g fill="#424242"><path d="m20.5 8.851562c2.566406 0 4.632812 2.0625 4.632812 4.628907 0 2.566406-2.066406 4.628906-4.632812 4.628906s-4.628906-2.0625-4.628906-4.628906c0-2.566407 2.0625-4.628907 4.628906-4.628907zm0 2.644532c-1.097656 0-1.984375.886718-1.984375 1.984375 0 1.097656.886719 1.984375 1.984375 1.984375 1.101562 0 1.984375-.886719 1.984375-1.984375 0-1.097657-.882813-1.984375-1.984375-1.984375zm0 0"/><path d="m27.117188 22.082031c1.097656 0 1.984374.882813 1.984374 1.984375v3.304688c0 1.101562-.886718 1.984375-1.984374 1.984375h-13.230469c-1.101563 0-1.984375-.882813-1.984375-1.984375v-3.304688c0-1.101562.882812-1.984375 1.984375-1.984375h.660156v3.96875c0 .363281.296875.660157.660156.660157h10.585938c.367187 0 .660156-.296876.660156-.660157v-3.96875zm0 0"/><path d="m23.808594 18.777344c.882812 0 1.945312.183594 2.96875.59375.511718.203125 1.011718.460937 1.460937.875.445313.410156.855469 1.066406.855469 1.835937v1.984375c.007812.472656-.242188.914063-.652344 1.15625-.410156.238282-.917968.238282-1.328125 0-.410156-.242187-.660156-.683594-.652343-1.15625v-1.878906c-.007813-.007812 0 .003906-.011719-.007812-.089844-.085938-.332031-.238282-.648438-.363282-.539062-.21875-1.273437-.351562-1.753906-.386718-2.589844 1.195312-5.050781 1.246093-7.191406.003906-.480469.046875-1.152344.179687-1.652344.382812-.316406.125-.558594.277344-.652344.363282-.011719.011718-.003906 0-.011719.007812v1.878906c.007813.472656-.242187.914063-.652343 1.15625-.410157.238282-.917969.238282-1.328125 0-.410156-.242187-.65625-.683594-.652344-1.15625v-1.984375c0-.769531.414062-1.425781.859375-1.835937.445313-.414063.945313-.671875 1.457031-.875 1.023438-.410156 2.089844-.59375 2.96875-.59375.261719 0 .515625.078125.730469.222656 1.648437 1.097656 2.886719 1.125 5.296875-.082031.183594-.089844.386719-.140625.589844-.140625zm0 0"/><g fill-opacity=".392157"><path d="m11.238281 2.894531c2.566407 0 4.632813 2.066407 4.632813 4.632813s-2.066406 4.628906-4.632813 4.628906c-2.5625 0-4.628906-2.0625-4.628906-4.628906s2.066406-4.632813 4.628906-4.632813zm0 2.648438c-1.097656 0-1.984375.882812-1.984375 1.984375 0 1.097656.886719 1.984375 1.984375 1.984375 1.101563 0 1.984375-.886719 1.984375-1.984375 0-1.101563-.882812-1.984375-1.984375-1.984375zm0 0"/><path d="m7.933594 12.824219c.257812 0 .511718.078125.730468.222656 1.628907 1.085937 2.855469 1.121094 5.214844-.042969v2.84375c-2.257812.816406-4.394531.726563-6.28125-.367187-.484375.046875-1.15625.179687-1.65625.378906-.316406.128906-.558594.28125-.652344.367187 0 0-.003906.003907-.003906.003907v3.863281c0 .367188.296875.664062.664063.664062h3.960937v2.644532h-5.285156c-1.101562 0-1.984375-.882813-1.984375-1.984375v-3.308594c0-.050781 0-.105469.003906-.15625v-1.828125c0-.769531.414063-1.421875.859375-1.835938.445313-.410156.945313-.667968 1.457032-.875 1.023437-.40625 2.089843-.589843 2.972656-.589843zm0 0"/></g></g></svg>

<svg xmlns="http://www.w3.org/2000/svg" xmlns:xlink="http://www.w3.org/1999/xlink" width="32px" height="32px" viewBox="0 0 32 32" version="1.1">
<g id="surface1">
     <defs>
  <style id="current-color-scheme" type="text/css">
   .ColorScheme-Text { color:#424242; } .ColorScheme-Highlight { color:#eeeeee; }
  </style>
 </defs>
<path style="fill:currentColor" class="ColorScheme-Text" d="M 20.5 8.851562 C 23.066406 8.851562 25.132812 10.914062 25.132812 13.480469 C 25.132812 16.046875 23.066406 18.109375 20.5 18.109375 C 17.933594 18.109375 15.871094 16.046875 15.871094 13.480469 C 15.871094 10.914062 17.933594 8.851562 20.5 8.851562 Z M 20.5 11.496094 C 19.402344 11.496094 18.515625 12.382812 18.515625 13.480469 C 18.515625 14.578125 19.402344 15.464844 20.5 15.464844 C 21.601562 15.464844 22.484375 14.578125 22.484375 13.480469 C 22.484375 12.382812 21.601562 11.496094 20.5 11.496094 Z M 20.5 11.496094 "/>
     <defs>
  <style id="current-color-scheme" type="text/css">
   .ColorScheme-Text { color:#424242; } .ColorScheme-Highlight { color:#eeeeee; }
  </style>
 </defs>
<path style="fill:currentColor" class="ColorScheme-Text" d="M 27.117188 22.082031 C 28.214844 22.082031 29.101562 22.964844 29.101562 24.066406 L 29.101562 27.371094 C 29.101562 28.472656 28.214844 29.355469 27.117188 29.355469 L 13.886719 29.355469 C 12.785156 29.355469 11.902344 28.472656 11.902344 27.371094 L 11.902344 24.066406 C 11.902344 22.964844 12.785156 22.082031 13.886719 22.082031 L 14.546875 22.082031 L 14.546875 26.050781 C 14.546875 26.414062 14.84375 26.710938 15.207031 26.710938 L 25.792969 26.710938 C 26.160156 26.710938 26.453125 26.414062 26.453125 26.050781 L 26.453125 22.082031 Z M 27.117188 22.082031 "/>
     <defs>
  <style id="current-color-scheme" type="text/css">
   .ColorScheme-Text { color:#424242; } .ColorScheme-Highlight { color:#eeeeee; }
  </style>
 </defs>
<path style="fill:currentColor" class="ColorScheme-Text" d="M 23.808594 18.777344 C 24.691406 18.777344 25.753906 18.960938 26.777344 19.371094 C 27.289062 19.574219 27.789062 19.832031 28.238281 20.246094 C 28.683594 20.65625 29.09375 21.3125 29.09375 22.082031 L 29.09375 24.066406 C 29.101562 24.539062 28.851562 24.980469 28.441406 25.222656 C 28.03125 25.460938 27.523438 25.460938 27.113281 25.222656 C 26.703125 24.980469 26.453125 24.539062 26.460938 24.066406 L 26.460938 22.1875 C 26.453125 22.179688 26.460938 22.191406 26.449219 22.179688 C 26.359375 22.09375 26.117188 21.941406 25.800781 21.816406 C 25.261719 21.597656 24.527344 21.464844 24.046875 21.429688 C 21.457031 22.625 18.996094 22.675781 16.855469 21.433594 C 16.375 21.480469 15.703125 21.613281 15.203125 21.816406 C 14.886719 21.941406 14.644531 22.09375 14.550781 22.179688 C 14.539062 22.191406 14.546875 22.179688 14.539062 22.1875 L 14.539062 24.066406 C 14.546875 24.539062 14.296875 24.980469 13.886719 25.222656 C 13.476562 25.460938 12.96875 25.460938 12.558594 25.222656 C 12.148438 24.980469 11.902344 24.539062 11.90625 24.066406 L 11.90625 22.082031 C 11.90625 21.3125 12.320312 20.65625 12.765625 20.246094 C 13.210938 19.832031 13.710938 19.574219 14.222656 19.371094 C 15.246094 18.960938 16.3125 18.777344 17.191406 18.777344 C 17.453125 18.777344 17.707031 18.855469 17.921875 19 C 19.570312 20.097656 20.808594 20.125 23.21875 18.917969 C 23.402344 18.828125 23.605469 18.777344 23.808594 18.777344 Z M 23.808594 18.777344 "/>
<path style=" stroke:none;fill-rule:nonzero;fill:rgb(25.882354%,25.882354%,25.882354%);fill-opacity:0.392157;" d="M 11.238281 2.894531 C 13.804688 2.894531 15.871094 4.960938 15.871094 7.527344 C 15.871094 10.09375 13.804688 12.15625 11.238281 12.15625 C 8.675781 12.15625 6.609375 10.09375 6.609375 7.527344 C 6.609375 4.960938 8.675781 2.894531 11.238281 2.894531 Z M 11.238281 5.542969 C 10.140625 5.542969 9.253906 6.425781 9.253906 7.527344 C 9.253906 8.625 10.140625 9.511719 11.238281 9.511719 C 12.339844 9.511719 13.222656 8.625 13.222656 7.527344 C 13.222656 6.425781 12.339844 5.542969 11.238281 5.542969 Z M 11.238281 5.542969 "/>
<path style=" stroke:none;fill-rule:nonzero;fill:rgb(25.882354%,25.882354%,25.882354%);fill-opacity:0.392157;" d="M 7.933594 12.824219 C 8.191406 12.824219 8.445312 12.902344 8.664062 13.046875 C 10.292969 14.132812 11.519531 14.167969 13.878906 13.003906 L 13.878906 15.847656 C 11.621094 16.664062 9.484375 16.574219 7.597656 15.480469 C 7.113281 15.527344 6.441406 15.660156 5.941406 15.859375 C 5.625 15.988281 5.382812 16.140625 5.289062 16.226562 C 5.289062 16.226562 5.285156 16.230469 5.285156 16.230469 L 5.285156 20.09375 C 5.285156 20.460938 5.582031 20.757812 5.949219 20.757812 L 9.910156 20.757812 L 9.910156 23.402344 L 4.625 23.402344 C 3.523438 23.402344 2.640625 22.519531 2.640625 21.417969 L 2.640625 18.109375 C 2.640625 18.058594 2.640625 18.003906 2.644531 17.953125 L 2.644531 16.125 C 2.644531 15.355469 3.058594 14.703125 3.503906 14.289062 C 3.949219 13.878906 4.449219 13.621094 4.960938 13.414062 C 5.984375 13.007812 7.050781 12.824219 7.933594 12.824219 Z M 7.933594 12.824219 "/>
</g>
</svg>
